packages/icons/src/conditional-skip-new.svg

<svg fill="none" viewBox="0 0 24 24" xmlns="http://www.w3.org/2000/svg"><path d="m18.4616 2.76904h-12.92306c-1.01961 0-1.84616.82655-1.84616 1.84616v11.0769c0 1.0196.82655 1.8462 1.84616 1.8462h12.92306c1.0196 0 1.8462-.8266 1.8462-1.8462v-11.0769c0-1.01961-.8266-1.84616-1.8462-1.84616z" fill="#f79400"/><g fill="#fff"><path d="m18.9035 7.43457c-.2243-.11815-.5123-.05907-.6397.17631l-.7366 1.092c-.7671-2.18307-3.0065-3.68677-5.5338-3.68677-2.59111 0-4.8628 1.59231-5.5985 3.83354-.06461.23631.06462.47262.31939.56031.25661.05908.51231-.05815.60831-.29446.60738-1.88769 2.49507-3.21508 4.6708-3.21508 2.111 0 3.9664 1.23877 4.6061 3.03785l-1.2157-.64893c-.2234-.11815-.5114-.05907-.6397.1477-.0313.04851-.052.10307-.0608.16012-.0089.05706-.0056.11533.0095.17104.0152.05572.0419.10762.0784.15234.0365.04473.082.08127.1335.10727l2.2062 1.17879c.0646.0295.1606.0591.2566.0591.0323 0 .096 0 .1283-.0296.1178-.0319.2201-.1053.288-.2068l1.2794-2.03442c.1283-.17723.0646-.44307-.1597-.56031z"/><path clip-rule="evenodd" d="m9.11523 11.1924v4.5h-4.5v-4.5zm-.75046.7504h-3v3h3zm6.00003-.7504v4.5h-4.4991v-4.5zm-.7496.7504h-3v3h3zm6-.7504v4.5h-4.5v-4.5zm-.7504.7504h-3v3h3z" fill-rule="evenodd"/><path d="m6.8657 12.6924h-.75047v.7504h.75047zm.74953.7504h-.75046v.7496h.75046v-.7505z"/><path clip-rule="evenodd" d="m16.6152 12.6924h.7505v.7504h-.7505z" fill-rule="evenodd"/><path d="m18.1152 13.4428h-.7505v.7496h.7505v-.7505z"/></g></svg>

<svg xmlns="http://www.w3.org/2000/svg" fill="none" viewBox="0 0 24 24">
<path d="M18.4616 2.76904H5.53854C4.51893 2.76904 3.69238 3.59559 3.69238 4.6152V15.6921C3.69238 16.7117 4.51893 17.5383 5.53854 17.5383H18.4616C19.4812 17.5383 20.3078 16.7117 20.3078 15.6921V4.6152C20.3078 3.59559 19.4812 2.76904 18.4616 2.76904Z" fill="#F79400"/>
<path d="M18.9035 7.43457C18.6792 7.31642 18.3912 7.3755 18.2638 7.61088L17.5272 8.70288C16.7601 6.51981 14.5207 5.01611 11.9934 5.01611C9.40229 5.01611 7.1306 6.60842 6.3949 8.84965C6.33029 9.08596 6.45952 9.32227 6.71429 9.40996C6.9709 9.46904 7.2266 9.35181 7.3226 9.1155C7.92998 7.22781 9.81767 5.90042 11.9934 5.90042C14.1044 5.90042 15.9598 7.13919 16.5995 8.93827L15.3838 8.28934C15.1604 8.17119 14.8724 8.23027 14.7441 8.43704C14.7128 8.48555 14.6921 8.54011 14.6833 8.59716C14.6744 8.65422 14.6777 8.71249 14.6928 8.7682C14.708 8.82392 14.7347 8.87582 14.7712 8.92054C14.8077 8.96527 14.8532 9.00181 14.9047 9.02781L17.1109 10.2066C17.1755 10.2361 17.2715 10.2657 17.3675 10.2657C17.3998 10.2657 17.4635 10.2657 17.4958 10.2361C17.6136 10.2042 17.7159 10.1308 17.7838 10.0293L19.0632 7.99488C19.1915 7.81765 19.1278 7.55181 18.9035 7.43457Z" fill="white"/>
<path fill-rule="evenodd" clip-rule="evenodd" d="M9.11523 11.1924V15.6924H4.61523V11.1924H9.11523ZM8.36477 11.9428H5.36477V14.9428H8.36477V11.9428ZM14.3648 11.1924V15.6924H9.8657V11.1924H14.3648V11.1924ZM13.6152 11.9428H10.6152V14.9428H13.6152V11.9428ZM19.6152 11.1924V15.6924H15.1152V11.1924H19.6152ZM18.8648 11.9428H15.8648V14.9428H18.8648V11.9428Z" fill="white"/>
<path d="M6.8657 12.6924H6.11523V13.4428H6.8657V12.6924ZM7.61523 13.4428H6.86477V14.1924H7.61523V13.4419V13.4428Z" fill="white"/>
<path fill-rule="evenodd" clip-rule="evenodd" d="M16.6152 12.6924H17.3657V13.4428H16.6152V12.6924Z" fill="white"/>
<path d="M18.1152 13.4428H17.3647V14.1924H18.1152V13.4419V13.4428Z" fill="white"/>
</svg>
